img/portfolio/briefcase.svg

<svg width="16" height="16" viewBox="0 0 16 16" fill="none" xmlns="http://www.w3.org/2000/svg">
<path d="M10.6667 15.1666H5.33332C2.25332 15.1666 1.67999 13.7333 1.53332 12.3399L1.03332 6.99993C0.959989 6.29993 0.939989 5.26659 1.63332 4.49326C2.23332 3.82659 3.22666 3.50659 4.66666 3.50659H11.3333C12.78 3.50659 13.7733 3.83326 14.3667 4.49326C15.06 5.26659 15.04 6.29993 14.9667 7.00659L14.4667 12.3333C14.32 13.7333 13.7467 15.1666 10.6667 15.1666ZM4.66666 4.49993C3.53999 4.49993 2.76666 4.71992 2.37332 5.15992C2.04666 5.51992 1.93999 6.07326 2.02666 6.89993L2.52666 12.2399C2.63999 13.2933 2.92666 14.1666 5.33332 14.1666H10.6667C13.0667 14.1666 13.36 13.2933 13.4733 12.2333L13.9733 6.90659C14.06 6.07326 13.9533 5.51992 13.6267 5.15992C13.2333 4.71992 12.46 4.49993 11.3333 4.49993H4.66666Z" fill="#0F172A"/>
<path d="M10.6666 4.49992C10.3933 4.49992 10.1666 4.27325 10.1666 3.99992V3.46659C10.1666 2.27992 10.1666 1.83325 8.53331 1.83325H7.46665C5.83331 1.83325 5.83331 2.27992 5.83331 3.46659V3.99992C5.83331 4.27325 5.60665 4.49992 5.33331 4.49992C5.05998 4.49992 4.83331 4.27325 4.83331 3.99992V3.46659C4.83331 2.29325 4.83331 0.833252 7.46665 0.833252H8.53331C11.1666 0.833252 11.1666 2.29325 11.1666 3.46659V3.99992C11.1666 4.27325 10.94 4.49992 10.6666 4.49992Z" fill="#0F172A"/>
<path d="M8.00002 11.1667C6.16669 11.1667 6.16669 10.0333 6.16669 9.35333V8.66667C6.16669 7.72667 6.39335 7.5 7.33335 7.5H8.66669C9.60669 7.5 9.83335 7.72667 9.83335 8.66667V9.33333C9.83335 10.0267 9.83335 11.1667 8.00002 11.1667ZM7.16669 8.5C7.16669 8.55333 7.16669 8.61333 7.16669 8.66667V9.35333C7.16669 10.04 7.16669 10.1667 8.00002 10.1667C8.83335 10.1667 8.83335 10.06 8.83335 9.34667V8.66667C8.83335 8.61333 8.83335 8.55333 8.83335 8.5C8.78002 8.5 8.72002 8.5 8.66669 8.5H7.33335C7.28002 8.5 7.22002 8.5 7.16669 8.5Z" fill="#0F172A"/>
<path d="M9.33331 9.84675C9.08665 9.84675 8.86665 9.66008 8.83998 9.40674C8.80665 9.13341 8.99998 8.88008 9.27331 8.84675C11.0333 8.62675 12.72 7.96008 14.14 6.92675C14.36 6.76008 14.6733 6.81341 14.84 7.04008C15 7.26008 14.9533 7.57341 14.7266 7.74008C13.1666 8.87341 11.3266 9.60008 9.39331 9.84675C9.37331 9.84675 9.35331 9.84675 9.33331 9.84675Z" fill="#0F172A"/>
<path d="M6.66666 9.85343C6.64666 9.85343 6.62666 9.85343 6.60666 9.85343C4.77999 9.64676 2.99999 8.9801 1.45999 7.92676C1.23333 7.77343 1.17333 7.4601 1.32666 7.23343C1.47999 7.00676 1.79333 6.94676 2.01999 7.1001C3.42666 8.0601 5.04666 8.66676 6.71333 8.8601C6.98666 8.89343 7.18666 9.1401 7.15333 9.41343C7.13333 9.66676 6.91999 9.85343 6.66666 9.85343Z" fill="#0F172A"/>
</svg>

<svg xmlns="http://www.w3.org/2000/svg" width="16" height="16" fill="none"><path fill="#0F172A" d="M10.667 15.167H5.333c-3.08 0-3.653-1.434-3.8-2.827L1.033 7c-.073-.7-.093-1.733.6-2.507.6-.666 1.594-.986 3.034-.986h6.666c1.447 0 2.44.326 3.034.986.693.774.673 1.807.6 2.514l-.5 5.326c-.147 1.4-.72 2.834-3.8 2.834Zm-6-10.667c-1.127 0-1.9.22-2.294.66-.326.36-.433.913-.346 1.74l.5 5.34c.113 1.053.4 1.927 2.806 1.927h5.334c2.4 0 2.693-.874 2.806-1.934l.5-5.326c.087-.834-.02-1.387-.346-1.747-.394-.44-1.167-.66-2.294-.66H4.667Z"/><path fill="#0F172A" d="M10.667 4.5a.504.504 0 0 1-.5-.5v-.533c0-1.187 0-1.634-1.634-1.634H7.467c-1.634 0-1.634.447-1.634 1.634V4c0 .273-.226.5-.5.5a.504.504 0 0 1-.5-.5v-.533c0-1.174 0-2.634 2.634-2.634h1.066c2.634 0 2.634 1.46 2.634 2.634V4c0 .273-.227.5-.5.5ZM8 11.167c-1.833 0-1.833-1.134-1.833-1.814v-.686c0-.94.226-1.167 1.166-1.167h1.334c.94 0 1.166.227 1.166 1.167v.666c0 .694 0 1.834-1.833 1.834ZM7.167 8.5V9.353c0 .687 0 .814.833.814s.833-.107.833-.82V8.5H7.167Z"/><path fill="#0F172A" d="M9.333 9.847a.502.502 0 0 1-.06-1c1.76-.22 3.447-.887 4.867-1.92a.497.497 0 0 1 .7.113c.16.22.113.533-.113.7a11.576 11.576 0 0 1-5.334 2.107h-.06ZM6.667 9.853h-.06A11.435 11.435 0 0 1 1.46 7.927a.502.502 0 0 1-.133-.694.502.502 0 0 1 .693-.133 10.502 10.502 0 0 0 4.693 1.76.5.5 0 0 1 .44.553.481.481 0 0 1-.486.44Z"/></svg>
